!!!OTL: Die verkaufte Muellerin Es wollt ein Mueller in der Frueh aufstehn,
!!!ARE: Europa, Mitteleuropa, Deutschland (BRD), Rheinpfalz
!!!YOR: 4, S. 346
!!    ????
!!!SCT: Q0086Y
!!!YEM: Copyright 1995, estate of Helmut Schaffrath.
**kern
*ICvox
*Ivox
*M3/8
*k[f#]
*G:
=1
{8g
8g
16b
16dd
=2
8.dd
16b
16b
16b
=3
4b
8a
=4
4a
8r}
=5
{8cc
8cc
8ee
=6
4ee
8cc
=7
4cc
8b
=8
4b
8r}
=9
{8dd
8dd
8dd
=10
4b
8b
=11
4a
8cc
=12
4b
8r}
==
!!!AGN: Ballade, Menschenhandel, Rettung, Hinrichtung
!!!ONB: ESAC (Essen Associative Code) Database: BALLADE
!!!AMT: simple triple
!!!AIN: vox
!!!EED: Helmut Schaffrath
!!!EEV: 1.0
*-
